assets/icons/24px/stroke/tray-stacked-24px.svg

<svg width="24" height="24" viewBox="0 0 24 24" fill="none" xmlns="http://www.w3.org/2000/svg">
<path fill-rule="evenodd" clip-rule="evenodd" d="M8.6142 10.0195C8.53913 10.0045 8.45413 10 8.01596 10H4V13.5H7.5V15.5H2V8.00001H8.01596C8.03857 8.00001 8.061 7.99999 8.08325 7.99997C8.41738 7.99971 8.71276 7.99949 9.00726 8.05851C9.03681 8.06444 9.06628 8.07081 9.09564 8.07762C9.38822 8.14549 9.65714 8.2677 9.96133 8.40594C9.98159 8.41515 10.002 8.42443 10.0226 8.43377C11.231 8.98178 11.5858 9.1229 11.9397 9.13357C11.9799 9.13478 12.0201 9.13478 12.0603 9.13357C12.4142 9.1229 12.769 8.98178 13.9774 8.43377C13.998 8.42443 14.0184 8.41515 14.0387 8.40595C14.3429 8.26771 14.6118 8.14549 14.9044 8.07762C14.9337 8.07081 14.9632 8.06444 14.9927 8.05851C15.2872 7.99949 15.5826 7.99971 15.9168 7.99997C15.939 7.99999 15.9614 8.00001 15.984 8.00001H22V15.5H16.5V13.5H20V10H15.984C15.5459 10 15.4609 10.0045 15.3858 10.0195C15.3759 10.0215 15.3661 10.0236 15.3563 10.0259C15.2817 10.0432 15.2025 10.0742 14.8034 10.2552C14.7503 10.2793 14.6978 10.3032 14.646 10.3267C13.6681 10.7712 12.9261 11.1084 12.1206 11.1327C12.0402 11.1351 11.9598 11.1351 11.8794 11.1327C11.0739 11.1084 10.3319 10.7712 9.35404 10.3267C9.30222 10.3032 9.24974 10.2793 9.19655 10.2552C8.7975 10.0742 8.71826 10.0432 8.64367 10.0259C8.63388 10.0236 8.62405 10.0215 8.6142 10.0195Z" fill="white"/>
<path fill-rule="evenodd" clip-rule="evenodd" d="M8.40992 15.51C8.35581 15.5023 8.29376 15.5 7.97756 15.5H4V17C4 17.9711 4.00213 18.5988 4.06431 19.0613C4.12263 19.495 4.21677 19.631 4.2929 19.7071C4.36902 19.7832 4.50497 19.8774 4.93871 19.9357C5.40121 19.9979 6.02893 20 7 20H17C17.9711 20 18.5988 19.9979 19.0613 19.9357C19.495 19.8774 19.631 19.7832 19.7071 19.7071C19.7832 19.631 19.8774 19.495 19.9357 19.0613C19.9979 18.5988 20 17.9711 20 17V15.5H16.0225C15.7063 15.5 15.6442 15.5023 15.5901 15.51C15.4968 15.5233 15.4058 15.5497 15.3199 15.5885C15.27 15.611 15.2164 15.6423 14.9495 15.8118C14.9122 15.8355 14.8754 15.8589 14.8391 15.882C14.1693 16.3078 13.6653 16.6282 13.1144 16.788C12.3865 16.9992 11.6135 16.9992 10.8856 16.788C10.3347 16.6282 9.83071 16.3078 9.16089 15.882C9.1246 15.8589 9.08782 15.8355 9.05053 15.8118C8.78359 15.6423 8.72997 15.611 8.68015 15.5885C8.59423 15.5497 8.50325 15.5233 8.40992 15.51ZM8.02634 13.5C8.26724 13.4998 8.47969 13.4997 8.69233 13.53C8.97231 13.57 9.24524 13.6493 9.50301 13.7657C9.69878 13.854 9.87807 13.968 10.0814 14.0972C10.095 14.1059 10.1087 14.1146 10.1225 14.1234C10.9524 14.6503 11.2016 14.7972 11.4428 14.8672C11.8068 14.9728 12.1932 14.9728 12.5572 14.8672C12.7984 14.7972 13.0476 14.6503 13.8775 14.1234C13.8913 14.1146 13.905 14.1059 13.9186 14.0972C14.1219 13.968 14.3012 13.854 14.497 13.7657C14.7548 13.6493 15.0277 13.57 15.3077 13.53C15.5203 13.4997 15.7328 13.4998 15.9737 13.5C15.9898 13.5 16.0061 13.5 16.0225 13.5H22L22 17.0658C22.0001 17.9523 22.0001 18.7161 21.9179 19.3278C21.8297 19.9833 21.631 20.6116 21.1213 21.1213C20.6117 21.631 19.9833 21.8297 19.3278 21.9178C18.7161 22.0001 17.9523 22 17.0658 22L7 22C6.97799 22 6.95604 22 6.93417 22C6.04769 22 5.28387 22.0001 4.67221 21.9178C4.0167 21.8297 3.38835 21.631 2.87868 21.1213C2.36902 20.6116 2.17028 19.9833 2.08215 19.3278C1.99991 18.7161 1.99995 17.9523 2 17.0658C2 17.0439 2 17.022 2 17V13.5H7.97756C7.99395 13.5 8.01021 13.5 8.02634 13.5Z" fill="white"/>
<path fill-rule="evenodd" clip-rule="evenodd" d="M8.89341 1.99987C8.93555 1.99993 8.97802 1.99999 9.02082 1.99999H14.9792C15.022 1.99999 15.0645 1.99993 15.1066 1.99987C15.7316 1.99899 16.286 1.9982 16.8058 2.19583C17.3256 2.39346 17.7394 2.76232 18.2059 3.17821C18.2374 3.20626 18.2691 3.23451 18.301 3.26295L20.3218 5.05921C20.3596 5.0928 20.3972 5.12607 20.4345 5.15909C20.9834 5.64546 21.471 6.07742 21.7367 6.66916C22.0025 7.2609 22.0014 7.91229 22.0002 8.64575C22.0001 8.69554 22 8.74571 22 8.79626V8.99999H20V8.79626C20 7.82273 19.9795 7.63827 19.9123 7.48847C19.845 7.33867 19.7207 7.20081 18.9931 6.55403L16.9723 4.75777C16.3548 4.20887 16.2269 4.11543 16.095 4.06527C15.9631 4.01512 15.8054 3.99999 14.9792 3.99999H9.02082C8.19462 3.99999 8.03696 4.01512 7.90504 4.06527C7.77312 4.11543 7.64524 4.20887 7.02773 4.75777L5.00693 6.55403C4.2793 7.20081 4.15505 7.33867 4.08778 7.48847C4.02051 7.63827 4.00002 7.82273 4.00002 8.79626V8.99999H2.00002V8.79626C2.00002 8.7457 1.99994 8.69554 1.99986 8.64574C1.99865 7.91229 1.99757 7.2609 2.2633 6.66916C2.52903 6.07742 3.0166 5.64546 3.5656 5.15908C3.60287 5.12607 3.64042 5.0928 3.6782 5.05921L5.699 3.26295C5.73099 3.23451 5.76269 3.20625 5.79415 3.17821C6.26069 2.76232 6.67447 2.39346 7.19428 2.19583C7.71409 1.9982 8.26841 1.99899 8.89341 1.99987Z" fill="white"/>
</svg>

<svg width="24" height="24" fill="none" xmlns="http://www.w3.org/2000/svg"><path fill-rule="evenodd" clip-rule="evenodd" d="M8.614 10.02c-.075-.015-.16-.02-.598-.02H4v3.5h3.5v2H2V8h6.083c.334 0 .63 0 .924.059.03.005.06.012.089.019.292.067.561.19.865.328l.062.028c1.208.548 1.563.689 1.917.7h.12c.354-.011.709-.152 1.917-.7l.062-.028c.304-.138.573-.26.865-.328l.089-.02c.294-.059.59-.058.924-.058H22v7.5h-5.5v-2H20V10h-4.016c-.438 0-.523.005-.598.02a.966.966 0 0 0-.03.006c-.074.017-.153.048-.553.23l-.157.07c-.978.445-1.72.782-2.525.807-.08.002-.161.002-.242 0-.805-.025-1.547-.362-2.525-.806l-.157-.072c-.4-.18-.479-.212-.553-.23a.991.991 0 0 0-.03-.005z" fill="#fff"/><path fill-rule="evenodd" clip-rule="evenodd" d="M8.41 15.51a3.601 3.601 0 0 0-.432-.01H4V17c0 .971.002 1.599.064 2.061.059.434.153.57.229.646.076.076.212.17.646.229C5.4 19.998 6.029 20 7 20h10c.971 0 1.599-.002 2.061-.064.434-.059.57-.153.646-.229.076-.076.17-.212.229-.646.062-.462.064-1.09.064-2.061v-1.5h-3.977c-.317 0-.379.002-.433.01a.999.999 0 0 0-.27.079c-.05.022-.104.053-.37.223l-.11.07c-.67.426-1.175.746-1.726.906a4 4 0 0 1-2.228 0c-.551-.16-1.055-.48-1.725-.906l-.11-.07c-.267-.17-.321-.201-.37-.223a.999.999 0 0 0-.271-.079zm-.384-2.01c.241 0 .454 0 .666.03.28.04.553.12.811.236.196.088.375.202.578.331l.042.026c.83.527 1.079.674 1.32.744a2 2 0 0 0 1.114 0c.241-.07.49-.217 1.32-.744l.042-.026c.203-.129.382-.243.578-.331.258-.117.53-.196.81-.236.213-.03.426-.03.667-.03H22v3.566c0 .886 0 1.65-.082 2.262-.088.655-.287 1.284-.797 1.793-.51.51-1.138.709-1.793.797-.612.082-1.376.082-2.262.082H6.934c-.886 0-1.65 0-2.262-.082-.655-.088-1.284-.287-1.793-.797-.51-.51-.709-1.138-.797-1.793C2 18.716 2 17.952 2 17.066V13.5h6.026zM8.893 2h6.214c.625-.001 1.179-.002 1.699.196.52.197.933.566 1.4.982l.095.085 2.02 1.796.113.1c.55.486 1.037.918 1.303 1.51S22 7.912 22 8.646V9h-2v-.204c0-.973-.02-1.158-.088-1.308-.067-.15-.191-.287-.919-.934l-2.02-1.796c-.618-.55-.746-.643-.878-.693-.132-.05-.29-.065-1.116-.065H9.021c-.826 0-.984.015-1.116.065-.132.05-.26.144-.877.693L5.007 6.554c-.728.647-.852.785-.92.934-.066.15-.087.335-.087 1.308V9H2v-.204-.15c-.001-.734-.002-1.385.263-1.977.266-.592.754-1.024 1.303-1.51l.112-.1L5.7 3.263l.095-.085c.467-.416.88-.785 1.4-.982.52-.198 1.074-.197 1.7-.196z" fill="#fff"/></svg>
